static/images/patterns/footer-diamond-enterprise-dark.svg

<svg fill="none" height="1862" viewBox="0 0 1910 1862" width="1910" xmlns="http://www.w3.org/2000/svg" xmlns:xlink="http://www.w3.org/1999/xlink"><linearGradient id="a" gradientUnits="userSpaceOnUse" x1="1105.82" x2="1051.66" y1=".564817" y2="1491.68"><stop offset=".475962" stop-color="#020618"/><stop offset="1" stop-color="#27272a"/></linearGradient><path d="m1747.11 1218.65 161.47-106.96-111.09-158.719m-50.38 265.679-111.09-158.71m111.09 158.71-161.47 106.97m50.38-265.68 161.47-106.969m-161.47 106.969-161.46 106.96m161.46-106.96-111.08-158.717m272.55 51.748-111.09-158.714m-100.76 531.363-111.08-158.72m111.08 158.72-161.46 106.96m50.38-265.68-161.47 106.97m161.47-106.97-111.09-158.71m60.71 424.39-111.09-158.71m111.09 158.71-161.47 106.97m50.38-265.68-161.47 106.97m161.47-106.97-111.09-158.72m60.71 424.4-111.09-158.71m111.09 158.71-161.47 106.97m50.38-265.68-161.463 106.96m161.463-106.96-111.08-158.72m60.7 424.4-111.083-158.72m111.083 158.72-161.462 106.96m50.379-265.68-161.466 106.97m161.466-106.97-111.087-158.71m60.708 424.39-111.087-158.71m111.087 158.71-161.466 106.97-111.087-158.72m161.466-106.96-161.466 106.96m161.466-106.96-111.087-158.72m-50.379 265.68-111.087-158.71m968.802-641.797 161.46-106.966m-161.46 106.966-161.47 106.967m161.47-106.967-111.09-158.714m272.55 51.748-111.09-158.714m-211.84 372.647-161.47 106.96m161.47-106.96-111.09-158.715m-50.38 265.675-161.46 106.97m161.46-106.97-111.08-158.709m-50.38 265.679-161.47 106.97m161.47-106.97-111.09-158.71m-50.38 265.68-161.466 106.96m161.466-106.96-111.087-158.72m-50.379 265.68-161.466 106.97m161.466-106.97-111.087-158.71m-50.379 265.68-111.087-158.72m968.799-641.791 161.46-106.966m-161.46 106.966-161.47 106.966m161.47-106.966-111.09-158.715m272.55 51.749-111.08-158.715m-211.85 372.647-161.46 106.966m161.46-106.966-111.08-158.715m-50.38 265.681-161.47 106.969m161.47-106.969-111.091-158.715m-50.379 265.684-161.467 106.96m161.467-106.96-111.087-158.718m-50.38 265.678-161.466 106.97m161.466-106.97-111.086-158.71m-50.38 265.68-161.466 106.96m161.466-106.96-111.087-158.72m-50.379 265.68-111.087-158.71m968.796-641.796 161.47-106.966m-161.47 106.966-161.46 106.966m161.46-106.966-111.09-158.714m272.56 51.748-111.09-158.714m-211.84 372.646-161.471 106.966m161.471-106.966-111.09-158.714m-50.381 265.68-161.466 106.966m161.466-106.966-111.087-158.714m-50.379 265.68-161.466 106.968m161.466-106.968-111.087-158.714m-50.379 265.682-161.467 106.96m161.467-106.96-111.087-158.716m-50.38 265.676-161.466 106.97m161.466-106.97-111.087-158.71m-50.379 265.68-111.087-158.71m968.793-641.8 161.47-106.966m-161.47 106.966-161.46 106.966m161.46-106.966-111.08-158.715m272.55 51.749-111.09-158.715m-211.84 372.647-161.468 106.966m161.468-106.966-111.089-158.715m-50.379 265.681-161.466 106.966m161.466-106.966-111.087-158.715m-50.379 265.681-161.466 106.966m161.466-106.966-111.087-158.715m-50.379 265.681-161.467 106.966m161.467-106.966-111.087-158.715m-50.38 265.681-161.466 106.97m161.466-106.97-111.086-158.715m-50.38 265.685-111.087-158.719m968.8-641.796 161.46-106.966m-161.46 106.966-161.469 106.966m161.469-106.966-111.089-158.714m272.549 51.748-111.08-158.713873-161.469 106.965873m-50.38 265.68-161.466 106.966m161.466-106.966-111.086-158.714m-50.38 265.68-161.466 106.966m161.466-106.966-111.087-158.714m-50.379 265.68-161.466 106.966m161.466-106.966-111.087-158.714m-50.379 265.68-161.466 106.966m161.466-106.966-111.087-158.714m-50.379 265.68-161.467 106.966m161.467-106.966-111.087-158.714m-50.38 265.68-111.086555-158.714 161.466555-106.966m807.331-534.83-161.466 106.966m0 0-161.467 106.966m0 0-161.466 106.966m0 0-161.466 106.966m0 0-161.466 106.966" stroke="url(#a)"/></svg>

<svg width="1910" height="1862" viewBox="0 0 1910 1862" fill="none" xmlns="http://www.w3.org/2000/svg">
<path d="M1747.11 1218.65L1908.58 1111.69L1797.49 952.971M1747.11 1218.65L1636.02 1059.94M1747.11 1218.65L1585.64 1325.62M1636.02 1059.94L1797.49 952.971M1636.02 1059.94L1474.56 1166.9M1636.02 1059.94L1524.94 901.223M1797.49 952.971L1686.4 794.257M1585.64 1325.62L1474.56 1166.9M1585.64 1325.62L1424.18 1432.58M1474.56 1166.9L1313.09 1273.87M1474.56 1166.9L1363.47 1008.19M1424.18 1432.58L1313.09 1273.87M1424.18 1432.58L1262.71 1539.55M1313.09 1273.87L1151.62 1380.84M1313.09 1273.87L1202 1115.15M1262.71 1539.55L1151.62 1380.84M1262.71 1539.55L1101.24 1646.52M1151.62 1380.84L990.157 1487.8M1151.62 1380.84L1040.54 1222.12M1101.24 1646.52L990.157 1487.8M1101.24 1646.52L939.778 1753.48M990.157 1487.8L828.691 1594.77M990.157 1487.8L879.07 1329.09M939.778 1753.48L828.691 1594.77M939.778 1753.48L778.312 1860.45L667.225 1701.73M828.691 1594.77L667.225 1701.73M828.691 1594.77L717.604 1436.05M667.225 1701.73L556.138 1543.02M1524.94 901.223L1686.4 794.257M1524.94 901.223L1363.47 1008.19M1524.94 901.223L1413.85 742.509M1686.4 794.257L1575.31 635.543M1363.47 1008.19L1202 1115.15M1363.47 1008.19L1252.38 849.475M1202 1115.15L1040.54 1222.12M1202 1115.15L1090.92 956.441M1040.54 1222.12L879.07 1329.09M1040.54 1222.12L929.45 1063.41M879.07 1329.09L717.604 1436.05M879.07 1329.09L767.983 1170.37M717.604 1436.05L556.138 1543.02M717.604 1436.05L606.517 1277.34M556.138 1543.02L445.051 1384.3M1413.85 742.509L1575.31 635.543M1413.85 742.509L1252.38 849.475M1413.85 742.509L1302.76 583.794M1575.31 635.543L1464.23 476.828M1252.38 849.475L1090.92 956.441M1252.38 849.475L1141.3 690.76M1090.92 956.441L929.45 1063.41M1090.92 956.441L979.829 797.726M929.45 1063.41L767.983 1170.37M929.45 1063.41L818.363 904.692M767.983 1170.37L606.517 1277.34M767.983 1170.37L656.897 1011.66M606.517 1277.34L445.051 1384.3M606.517 1277.34L495.43 1118.62M445.051 1384.3L333.964 1225.59M1302.76 583.794L1464.23 476.828M1302.76 583.794L1141.3 690.76M1302.76 583.794L1191.67 425.08M1464.23 476.828L1353.14 318.114M1141.3 690.76L979.829 797.726M1141.3 690.76L1030.21 532.046M979.829 797.726L818.363 904.692M979.829 797.726L868.742 639.012M818.363 904.692L656.897 1011.66M818.363 904.692L707.276 745.978M656.897 1011.66L495.43 1118.62M656.897 1011.66L545.81 852.944M495.43 1118.62L333.964 1225.59M495.43 1118.62L384.343 959.91M333.964 1225.59L222.877 1066.88M1191.67 425.08L1353.14 318.114M1191.67 425.08L1030.21 532.046M1191.67 425.08L1080.59 266.365M1353.14 318.114L1242.05 159.399M1030.21 532.046L868.742 639.012M1030.21 532.046L919.121 373.331M868.742 639.012L707.276 745.978M868.742 639.012L757.655 480.297M707.276 745.978L545.81 852.944M707.276 745.978L596.189 587.263M545.81 852.944L384.343 959.91M545.81 852.944L434.723 694.229M384.343 959.91L222.877 1066.88M384.343 959.91L273.257 801.195M222.877 1066.88L111.79 908.161M1080.59 266.365L1242.05 159.399M1080.59 266.365L919.121 373.331M1080.59 266.365L969.501 107.651M1242.05 159.399L1130.97 0.685127L969.501 107.651M919.121 373.331L757.655 480.297M919.121 373.331L808.035 214.617M757.655 480.297L596.189 587.263M757.655 480.297L646.568 321.583M596.189 587.263L434.723 694.229M596.189 587.263L485.102 428.549M434.723 694.229L273.257 801.195M434.723 694.229L323.636 535.515M273.257 801.195L111.79 908.161M273.257 801.195L162.17 642.481M111.79 908.161L0.703445 749.447L162.17 642.481M969.501 107.651L808.035 214.617M808.035 214.617L646.568 321.583M646.568 321.583L485.102 428.549M485.102 428.549L323.636 535.515M323.636 535.515L162.17 642.481" stroke="url(#paint0_linear_17697_1431)"/>
<defs>
<linearGradient id="paint0_linear_17697_1431" x1="1105.82" y1="0.564817" x2="1051.66" y2="1491.68" gradientUnits="userSpaceOnUse">
<stop offset="0.475962" stop-color="#020618"/>
<stop offset="1" stop-color="#27272A"/>
</linearGradient>
</defs>
</svg>
